X:280
T:Neon Luv Jig
M:6/8
L:1/8
C:Frederick E. Wilson copyright 2005
R:Jig
K:EDor
B|e2Bf2B|g3 fed|Bed e2d|BdB A2B|e2Bf2B|g3fed|Bed BAG|1_BAG E2 =B:|2_BAG
E2 A||
(_B3 B)AB|AGE AGE|(_B3 B)AB|AGE G2A|(_B3 B)=Bd|e2Bf2B|g_ba ged|1(e3 e2)A
:|2e6||
ega _b2=b|_bag ed=B|_B=B_B AGE|F(A2 A3)|_B=B(e e)de|_b2 (=b b)_b=b|_bag
ede|1z6:|2z3z2B||
e2Bf2B|g3 fga|!
_b=b_b ag(_b|_b)ag ed(e|e2) Bf2B|g3 fga|_b=b_b age|1z6:|2z
3z2B||
